src/16/actions/escape-direction-up.svg

<svg xmlns="http://www.w3.org/2000/svg" width="16" height="16" viewBox="0 0 16 16">
 <defs>
  <style id="current-color-scheme" type="text/css">
   .ColorScheme-Text { color:#565656; } .ColorScheme-Highlight { color:#5294e2; }
  </style>
 </defs>
 <path style="fill:currentColor" class="ColorScheme-Text" d="M 1 1.0039062 L 1 15.003906 L 15 15.003906 L 15 1.0039062 L 1 1.0039062 z M 3 3.0058594 L 7 3.0058594 L 7 6.2832031 C 6.40435 6.6295531 6 7.2671844 6 8.0058594 C 6 9.1104594 6.8954 10.005859 8 10.005859 C 9.1046 10.005859 10 9.1104594 10 8.0058594 C 10 7.2671844 9.59565 6.6295531 9 6.2832031 L 9 3.0058594 L 13 3.0058594 L 13 13.003906 L 3 13.003906 L 3 3.0058594 z"/>
</svg>

<svg xmlns="http://www.w3.org/2000/svg" width="16" height="16"><defs><style id="current-color-scheme" type="text/css"></style></defs><path d="M1 1.004v14h14v-14H1zm2 2.002h4v3.277a1.99 1.99 0 0 0-1 1.723 2 2 0 1 0 4 0 1.99 1.99 0 0 0-1-1.723V3.006h4v9.998H3V3.006z" fill="currentColor" color="#565656"/></svg>
